assets/features/channel/europe-and-america/Vodafone.svg

<svg width="80" height="80" viewBox="0 0 80 80" fill="none" xmlns="http://www.w3.org/2000/svg">
<rect width="80" height="80" rx="8" fill="#ED1E24"/>
<path fill-rule="evenodd" clip-rule="evenodd" d="M40.0007 60C51.0454 60 59.9987 51.0472 59.9987 40.0006C59.9987 30.9474 53.9852 23.2998 45.7354 20.8344C45.7495 20.826 45.7568 20.8219 45.7568 20.8219C45.7357 20.8219 45.7146 20.8219 45.6936 20.822C43.8893 20.2871 41.9785 20 40.0007 20C28.9548 20 20.0015 28.954 20.0015 40.0006C20.0015 51.0472 28.9548 60 40.0007 60ZM45.6936 20.822C37.3902 20.8569 30.2337 27.7591 28.8368 36.4887C28.7093 37.3117 28.8368 39.9141 28.8368 39.9141C28.8368 46.0786 33.8354 51.0776 40.0007 51.0776C46.1672 51.0776 51.1658 46.0798 51.1658 39.9141C51.1658 33.7542 46.1788 28.7611 40.0229 28.7482C41.6602 23.3503 45.4177 21.0232 45.7354 20.8344L45.6936 20.822Z" fill="white"/>
</svg>

<svg xmlns="http://www.w3.org/2000/svg" width="80" height="80" fill="none" viewBox="0 0 80 80"><rect width="80" height="80" fill="#ed1e24" rx="8"/><path fill="#fff" fill-rule="evenodd" d="M40 60c11.046 0 20-8.953 20-20 0-9.053-6.014-16.7-14.264-19.166l.022-.012h-.063A20 20 0 0 0 40 20c-11.046 0-20 8.954-20 20 0 11.047 8.954 20 20 20m5.694-39.178c-8.304.035-15.46 6.937-16.857 15.667-.128.823 0 3.425 0 3.425 0 6.165 4.998 11.164 11.164 11.164s11.165-4.998 11.165-11.164c0-6.16-4.987-11.153-11.143-11.166 1.637-5.398 5.395-7.725 5.712-7.914z" clip-rule="evenodd"/></svg>
